ru/_assets/tracker/svg/cancel.svg

<svg width="86" height="20" viewBox="0 0 86 20" fill="none" xmlns="http://www.w3.org/2000/svg">
<g clip-path="url(#clip0_3479_35394)">
<path fill-rule="evenodd" clip-rule="evenodd" d="M16.125 10C16.125 12.2782 14.2782 14.125 12 14.125C9.72182 14.125 7.875 12.2782 7.875 10C7.875 7.72182 9.72182 5.875 12 5.875C14.2782 5.875 16.125 7.72182 16.125 10ZM17.25 10C17.25 12.8995 14.8995 15.25 12 15.25C9.1005 15.25 6.75 12.8995 6.75 10C6.75 7.1005 9.1005 4.75 12 4.75C14.8995 4.75 17.25 7.1005 17.25 10ZM10.8977 8.10225C10.6781 7.88258 10.3219 7.88258 10.1023 8.10225C9.88258 8.32192 9.88258 8.67808 10.1023 8.89775L11.2045 10L10.1023 11.1023C9.88258 11.3219 9.88258 11.6781 10.1023 11.8977C10.3219 12.1174 10.6781 12.1174 10.8977 11.8977L12 10.7955L13.1023 11.8977C13.3219 12.1174 13.6781 12.1174 13.8977 11.8977C14.1174 11.6781 14.1174 11.3219 13.8977 11.1023L12.7955 10L13.8977 8.89775C14.1174 8.67808 14.1174 8.32192 13.8977 8.10225C13.6781 7.88258 13.3219 7.88258 13.1023 8.10225L12 9.2045L10.8977 8.10225Z" fill="black" fill-opacity="0.7"/>
</g>
<path d="M28.005 14.13C27.381 14.13 26.796 14.026 26.25 13.818C25.704 13.6013 25.2317 13.2893 24.833 12.882C24.4343 12.4747 24.118 11.972 23.884 11.374C23.6587 10.776 23.546 10.087 23.546 9.307C23.546 8.527 23.6587 7.84233 23.884 7.253C24.118 6.655 24.4343 6.161 24.833 5.771C25.2317 5.37233 25.704 5.07333 26.25 4.874C26.796 4.666 27.381 4.562 28.005 4.562C28.6377 4.562 29.227 4.666 29.773 4.874C30.319 5.07333 30.7913 5.37233 31.19 5.771C31.5887 6.16967 31.9007 6.668 32.126 7.266C32.3513 7.85533 32.464 8.54 32.464 9.32C32.464 10.0913 32.3513 10.776 32.126 11.374C31.9007 11.972 31.5887 12.4747 31.19 12.882C30.7913 13.2893 30.319 13.6013 29.773 13.818C29.227 14.026 28.6377 14.13 28.005 14.13ZM28.005 13.025C28.4557 13.025 28.8717 12.96 29.253 12.83C29.6343 12.6913 29.9637 12.479 30.241 12.193C30.527 11.8983 30.748 11.517 30.904 11.049C31.0687 10.581 31.151 10.0133 31.151 9.346C31.151 8.67867 31.0687 8.111 30.904 7.643C30.748 7.175 30.527 6.798 30.241 6.512C29.9637 6.21733 29.6343 6.005 29.253 5.875C28.8717 5.73633 28.4557 5.667 28.005 5.667C27.5543 5.667 27.1383 5.73633 26.757 5.875C26.3757 6.005 26.042 6.21733 25.756 6.512C25.4787 6.798 25.2577 7.175 25.093 7.643C24.937 8.111 24.859 8.67867 24.859 9.346C24.859 10.0133 24.937 10.581 25.093 11.049C25.2577 11.517 25.4787 11.8983 25.756 12.193C26.042 12.479 26.3757 12.6913 26.757 12.83C27.1383 12.96 27.5543 13.025 28.005 13.025ZM36.6569 8.228V14H35.5129V8.228H33.3939V7.253H38.8149V8.228H36.6569ZM46.5702 8.579L44.2822 13.246H43.3722L41.2142 8.553V14H40.1352V7.253H41.8382L43.9052 11.777L46.1152 7.253H47.7012V14H46.5702V8.579ZM54.9368 13.428C54.8415 13.4973 54.7245 13.571 54.5858 13.649C54.4472 13.727 54.2782 13.805 54.0788 13.883C53.8795 13.9523 53.6542 14.0087 53.4028 14.052C53.1515 14.104 52.8698 14.13 52.5578 14.13C51.4225 14.13 50.5602 13.8223 49.9708 13.207C49.3815 12.5917 49.0868 11.7293 49.0868 10.62C49.0868 10.074 49.1648 9.58433 49.3208 9.151C49.4855 8.71767 49.7108 8.35367 49.9968 8.059C50.2828 7.75567 50.6208 7.526 51.0108 7.37C51.4008 7.20533 51.8255 7.123 52.2848 7.123C52.7702 7.123 53.2035 7.20533 53.5848 7.37C53.9662 7.53467 54.2782 7.77733 54.5208 8.098C54.7722 8.41867 54.9412 8.81733 55.0278 9.294C55.1232 9.762 55.1232 10.308 55.0278 10.932H50.2698C50.3132 11.66 50.5298 12.206 50.9198 12.57C51.3098 12.9253 51.8905 13.103 52.6618 13.103C53.1818 13.103 53.6282 13.0293 54.0008 12.882C54.3735 12.7347 54.6855 12.5743 54.9368 12.401V13.428ZM52.2588 8.137C51.7648 8.137 51.3402 8.28867 50.9848 8.592C50.6295 8.89533 50.4042 9.35467 50.3088 9.97H53.9358C53.9705 9.346 53.8275 8.88667 53.5068 8.592C53.1862 8.28867 52.7702 8.137 52.2588 8.137ZM60.97 11.01H57.707V14H56.563V7.253H57.707V10.035H60.97V7.253H62.114V14H60.97V11.01ZM69.3587 13.428C69.2634 13.4973 69.1464 13.571 69.0077 13.649C68.869 13.727 68.7 13.805 68.5007 13.883C68.3014 13.9523 68.076 14.0087 67.8247 14.052C67.5734 14.104 67.2917 14.13 66.9797 14.13C65.8444 14.13 64.982 13.8223 64.3927 13.207C63.8034 12.5917 63.5087 11.7293 63.5087 10.62C63.5087 10.074 63.5867 9.58433 63.7427 9.151C63.9074 8.71767 64.1327 8.35367 64.4187 8.059C64.7047 7.75567 65.0427 7.526 65.4327 7.37C65.8227 7.20533 66.2474 7.123 66.7067 7.123C67.192 7.123 67.6254 7.20533 68.0067 7.37C68.388 7.53467 68.7 7.77733 68.9427 8.098C69.194 8.41867 69.363 8.81733 69.4497 9.294C69.545 9.762 69.545 10.308 69.4497 10.932H64.6917C64.735 11.66 64.9517 12.206 65.3417 12.57C65.7317 12.9253 66.3124 13.103 67.0837 13.103C67.6037 13.103 68.05 13.0293 68.4227 12.882C68.7954 12.7347 69.1074 12.5743 69.3587 12.401V13.428ZM66.6807 8.137C66.1867 8.137 65.762 8.28867 65.4067 8.592C65.0514 8.89533 64.826 9.35467 64.7307 9.97H68.3577C68.3924 9.346 68.2494 8.88667 67.9287 8.592C67.608 8.28867 67.192 8.137 66.6807 8.137ZM75.3918 11.01H72.1288V14H70.9848V7.253H72.1288V10.035H75.3918V7.253H76.5358V14H75.3918V11.01Z" fill="black" fill-opacity="0.7"/>
<defs>
<clipPath id="clip0_3479_35394">
<rect width="12" height="12" fill="white" transform="translate(6 4)"/>
</clipPath>
</defs>
</svg>

<svg xmlns="http://www.w3.org/2000/svg" width="86" height="20" fill="none" viewBox="0 0 86 20">
    <g clip-path="url(#clip0_3479_35394)">
        <path fill="#000" fill-opacity=".7" fill-rule="evenodd" d="M16.125 10a4.125 4.125 0 1 1-8.25 0 4.125 4.125 0 0 1 8.25 0Zm1.125 0a5.25 5.25 0 1 1-10.5 0 5.25 5.25 0 0 1 10.5 0Zm-6.352-1.898a.562.562 0 1 0-.796.796L11.204 10l-1.102 1.102a.562.562 0 1 0 .796.796L12 10.796l1.102 1.102a.562.562 0 1 0 .796-.796L12.796 10l1.102-1.102a.562.562 0 1 0-.796-.796L12 9.204l-1.102-1.102Z" clip-rule="evenodd"/>
    </g>
    <path fill="#000" fill-opacity=".7" d="M28.005 14.13a4.888 4.888 0 0 1-1.755-.312 4.047 4.047 0 0 1-1.417-.936 4.433 4.433 0 0 1-.949-1.508c-.225-.598-.338-1.287-.338-2.067 0-.78.113-1.465.338-2.054.234-.598.55-1.092.949-1.482a3.838 3.838 0 0 1 1.417-.897 4.888 4.888 0 0 1 1.755-.312c.633 0 1.222.104 1.768.312.546.2 1.018.498 1.417.897s.71.897.936 1.495c.225.59.338 1.274.338 2.054 0 .771-.113 1.456-.338 2.054a4.279 4.279 0 0 1-.936 1.508c-.399.407-.871.72-1.417.936a4.925 4.925 0 0 1-1.768.312Zm0-1.105c.45 0 .867-.065 1.248-.195a2.59 2.59 0 0 0 .988-.637c.286-.295.507-.676.663-1.144.165-.468.247-1.036.247-1.703s-.082-1.235-.247-1.703c-.156-.468-.377-.845-.663-1.131a2.402 2.402 0 0 0-.988-.637 3.626 3.626 0 0 0-1.248-.208c-.45 0-.867.07-1.248.208-.381.13-.715.342-1.001.637-.277.286-.498.663-.663 1.131-.156.468-.234 1.036-.234 1.703s.078 1.235.234 1.703c.165.468.386.85.663 1.144.286.286.62.498 1.001.637.381.13.797.195 1.248.195Zm8.652-4.797V14h-1.144V8.228h-2.12v-.975h5.422v.975h-2.158Zm9.913.351-2.288 4.667h-.91l-2.158-4.693V14h-1.079V7.253h1.703l2.067 4.524 2.21-4.524h1.586V14h-1.13V8.579Zm8.367 4.849c-.095.07-.212.143-.351.221a4.062 4.062 0 0 1-.507.234c-.2.07-.425.126-.676.169a4.185 4.185 0 0 1-.845.078c-1.136 0-1.998-.308-2.587-.923-.59-.615-.884-1.478-.884-2.587 0-.546.078-1.036.234-1.469.165-.433.39-.797.676-1.092a2.812 2.812 0 0 1 1.014-.689c.39-.165.814-.247 1.274-.247.485 0 .919.082 1.3.247.381.165.693.407.936.728.251.32.42.72.507 1.196.095.468.095 1.014 0 1.638H50.27c.043.728.26 1.274.65 1.638.39.355.97.533 1.742.533.52 0 .966-.074 1.339-.221a4.7 4.7 0 0 0 .936-.481v1.027Zm-2.678-5.291c-.494 0-.919.152-1.274.455-.355.303-.58.763-.676 1.378h3.627c.035-.624-.108-1.083-.43-1.378-.32-.303-.736-.455-1.247-.455Zm8.711 2.873h-3.263V14h-1.144V7.253h1.144v2.782h3.263V7.253h1.144V14H60.97v-2.99Zm8.389 2.418c-.096.07-.213.143-.351.221a4.075 4.075 0 0 1-.507.234c-.2.07-.425.126-.676.169a4.185 4.185 0 0 1-.845.078c-1.136 0-1.998-.308-2.587-.923-.59-.615-.884-1.478-.884-2.587 0-.546.078-1.036.234-1.469.164-.433.39-.797.676-1.092a2.812 2.812 0 0 1 1.014-.689c.39-.165.814-.247 1.274-.247.485 0 .918.082 1.3.247.381.165.693.407.936.728.251.32.42.72.507 1.196.095.468.095 1.014 0 1.638h-4.758c.043.728.26 1.274.65 1.638.39.355.97.533 1.742.533.52 0 .966-.074 1.339-.221.372-.147.684-.308.936-.481v1.027ZM66.68 8.137c-.494 0-.919.152-1.274.455-.356.303-.581.763-.676 1.378h3.627c.034-.624-.109-1.083-.43-1.378-.32-.303-.736-.455-1.247-.455Zm8.71 2.873h-3.26V14h-1.144V7.253h1.144v2.782h3.263V7.253h1.144V14h-1.144v-2.99Z"/>
    <defs>
        <clipPath id="clip0_3479_35394">
            <path fill="#fff" d="M6 4h12v12H6z"/>
        </clipPath>
    </defs>
</svg>
